Sources/FrostedUI/Resources/Icons.xcassets/sealCheckmark16.imageset/seal-checkmark-16.svg

<svg width="16" height="16" viewBox="0 0 16 16" fill="none" xmlns="http://www.w3.org/2000/svg" data-fui-icon="true">
  <g clip-path="url(#clip0_882_1081)">
    <path
      d="M8.00293 -0.00683594C8.7444 -0.00683594 9.406 0.330629 9.8457 0.859375C10.0759 1.13612 10.3502 1.38732 10.6826 1.52539C11.0159 1.66377 11.3849 1.67716 11.7441 1.64355C12.4299 1.5793 13.1378 1.80896 13.6631 2.33398C14.1875 2.85848 14.4168 3.565 14.3535 4.25C14.3203 4.61014 14.3347 4.98054 14.4736 5.31445C14.6119 5.64641 14.8626 5.9209 15.1387 6.15137C15.6653 6.59114 16.001 7.25137 16.001 7.99121C16.0008 8.729 15.6669 9.38767 15.1426 9.82715C14.8656 10.0594 14.6134 10.3352 14.4746 10.6689C14.3351 11.0048 14.3214 11.3771 14.3545 11.7393C14.4169 12.4235 14.187 13.1295 13.6631 13.6533C13.2039 14.1121 12.6052 14.3445 12.0039 14.3525L11.7471 14.3428C11.3862 14.3092 11.0155 14.3231 10.6807 14.4619L10.5586 14.5186C10.2796 14.663 10.0432 14.8858 9.84082 15.1279C9.40126 15.6537 8.74199 15.9893 8.00293 15.9893C7.35368 15.9892 6.76532 15.7308 6.33398 15.3115L6.15918 15.1221C5.95927 14.8813 5.72579 14.6599 5.44922 14.5166L5.32812 14.4609C4.99661 14.3235 4.62977 14.3091 4.27246 14.3428L4.01465 14.3525C3.41192 14.3449 2.81158 14.1123 2.35156 13.6523C1.82819 13.1287 1.59807 12.4231 1.66016 11.7393C1.68883 11.4239 1.68119 11.1013 1.58594 10.8018L1.54004 10.6748C1.43597 10.4243 1.26802 10.2063 1.07324 10.0156L0.870117 9.83398C0.341722 9.39436 0.00501216 8.7323 0.00488281 7.99121C0.00489856 7.24817 0.343435 6.58444 0.874023 6.14453C1.15109 5.91494 1.40276 5.6408 1.54102 5.30859C1.64465 5.05928 1.67912 4.78977 1.67578 4.51953L1.66113 4.25C1.59813 3.56552 1.82773 2.85927 2.35156 2.33496C2.87769 1.80883 3.5873 1.5795 4.27441 1.64453C4.58558 1.67404 4.90444 1.66617 5.2002 1.57227L5.32617 1.52637C5.65557 1.3895 5.92706 1.14021 6.1543 0.865234C6.59404 0.332934 7.2586 -0.00674603 8.00293 -0.00683594ZM8.00293 1.49316C7.72617 1.49325 7.47842 1.6171 7.31055 1.82031C7.00684 2.18786 6.54906 2.64312 5.90137 2.91211C5.24917 3.18276 4.60293 3.18229 4.13281 3.1377C3.90338 3.11605 3.6733 3.17957 3.48828 3.32715L3.41211 3.39551C3.21762 3.59046 3.13035 3.85155 3.1543 4.1123C3.1976 4.58311 3.19767 5.23087 2.92578 5.88477C2.65531 6.53483 2.19859 6.99524 1.83105 7.2998C1.65423 7.4466 1.53726 7.65408 1.51074 7.88867L1.50488 7.99121C1.50501 8.26644 1.62832 8.51281 1.83008 8.68066C2.19756 8.98647 2.6542 9.44759 2.9248 10.0986C3.19712 10.7543 3.19712 11.404 3.1543 11.875C3.13073 12.1355 3.2175 12.3969 3.41211 12.5918L3.48828 12.6602C3.67268 12.8071 3.90247 12.8712 4.13184 12.8496C4.6028 12.8052 5.24898 12.8043 5.90234 13.0752C6.55007 13.3438 7.00921 13.7976 7.31348 14.1641C7.48129 14.3659 7.7274 14.4892 8.00293 14.4893C8.27722 14.4893 8.52254 14.3667 8.69043 14.166C8.99633 13.8 9.45673 13.3454 10.1055 13.0762C10.7627 12.8035 11.4134 12.8056 11.8857 12.8496C12.1471 12.874 12.408 12.7869 12.6025 12.5928L12.6709 12.5166C12.8174 12.3328 12.881 12.1043 12.8604 11.876C12.8172 11.4041 12.8165 10.7519 13.0898 10.0938C13.3594 9.44537 13.8133 8.9841 14.1787 8.67773C14.3789 8.50994 14.5008 8.26502 14.501 7.99121C14.501 7.71609 14.3785 7.47054 14.1777 7.30273C13.8123 6.99765 13.3583 6.53798 13.0889 5.89062C12.8158 5.23429 12.8168 4.58407 12.8604 4.1123C12.8815 3.88347 12.8175 3.65472 12.6709 3.4707L12.6025 3.39453C12.4074 3.19962 12.1462 3.11329 11.8848 3.1377C11.4133 3.18185 10.7635 3.18256 10.1074 2.91016C9.45815 2.64048 8.99782 2.1856 8.69238 1.81836C8.52443 1.6164 8.2784 1.49316 8.00293 1.49316ZM9.97461 5.46777C10.2675 5.17506 10.7423 5.17494 11.0352 5.46777C11.3277 5.76063 11.3278 6.23551 11.0352 6.52832L7.03516 10.5283C6.74236 10.8211 6.26753 10.8209 5.97461 10.5283L4.47461 9.02832C4.18172 8.73543 4.18172 8.26067 4.47461 7.96777C4.76752 7.67506 5.24232 7.67494 5.53516 7.96777L6.50488 8.9375L9.97461 5.46777Z"
      fill="currentColor"
    />
  </g>
  <defs>
    <clipPath id="clip0_882_1081"><path fill="currentColor" d="M0 0H16V16H0z" /></clipPath>
  </defs>
</svg>

<svg xmlns="http://www.w3.org/2000/svg" width="16" height="16" fill="none" data-fui-icon="true" viewBox="0 0 16 16"><g clip-path="url(#a)"><path fill="currentColor" d="M8.003-.007A2.39 2.39 0 0 1 9.846.86c.23.277.504.528.837.666.333.139.702.152 1.061.119a2.39 2.39 0 0 1 2.61 2.606c-.034.36-.02.73.12 1.064.138.332.389.607.665.837a2.39 2.39 0 0 1 .004 3.676c-.277.232-.53.508-.668.842-.14.336-.154.708-.12 1.07a2.39 2.39 0 0 1-2.351 2.613l-.257-.01c-.36-.033-.732-.019-1.066.12l-.122.057c-.28.144-.516.367-.718.609a2.39 2.39 0 0 1-3.507.184l-.175-.19c-.2-.24-.433-.462-.71-.605l-.12-.056c-.332-.138-.7-.152-1.057-.118l-.257.01A2.392 2.392 0 0 1 1.66 11.74c.028-.316.02-.639-.075-.938l-.046-.127a2 2 0 0 0-.467-.66L.87 9.835a2.393 2.393 0 0 1 .004-3.69c.277-.23.529-.503.667-.835a2 2 0 0 0 .135-.79L1.66 4.25a2.39 2.39 0 0 1 2.613-2.605c.312.029.63.021.926-.073l.126-.046c.33-.137.601-.386.828-.66a2.4 2.4 0 0 1 1.849-.873m0 1.5a.9.9 0 0 0-.692.327c-.304.368-.762.823-1.41 1.092-.652.27-1.298.27-1.768.226a.9.9 0 0 0-.645.19l-.076.068a.9.9 0 0 0-.258.716c.044.471.044 1.119-.228 1.773-.27.65-.727 1.11-1.095 1.415a.9.9 0 0 0-.32.589l-.006.102c0 .275.123.522.325.69.368.305.824.767 1.095 1.418.272.655.272 1.305.23 1.776a.9.9 0 0 0 .257.717l.076.068a.9.9 0 0 0 .644.19c.47-.045 1.117-.046 1.77.225.648.269 1.107.723 1.411 1.09a.89.89 0 0 0 1.377.001c.306-.366.767-.82 1.415-1.09.658-.273 1.308-.27 1.78-.226a.89.89 0 0 0 .717-.257l.069-.076a.9.9 0 0 0 .19-.641c-.044-.472-.045-1.124.229-1.782.27-.649.723-1.11 1.089-1.416a.89.89 0 0 0-.001-1.375c-.366-.305-.82-.765-1.09-1.412-.272-.657-.271-1.307-.228-1.779a.9.9 0 0 0-.19-.641l-.068-.076a.89.89 0 0 0-.717-.257c-.472.044-1.121.045-1.778-.228-.649-.27-1.11-.724-1.415-1.092a.89.89 0 0 0-.69-.325m1.972 3.975a.75.75 0 0 1 1.06 1.06l-4 4a.75.75 0 0 1-1.06 0l-1.5-1.5a.75.75 0 1 1 1.06-1.06l.97.97z"/></g><defs><clipPath id="a"><path fill="currentColor" d="M0 0h16v16H0z"/></clipPath></defs></svg>
